X: 19638
T: Jean Claudes Tie
R: reel
M: 4/4
K: Dmajor
F/E/|A2 FE DE FA|B2 GA Be dB|A2 FA dF AF|
E2 CD EF GB|AF (3FAF DE FA|BG (3GBG Be dB|cf ed cA BA|
df ec d4|fa da fa df|ae (3ege ce AB|cB AB cd ef|
gf (3fgf ef de|fa da fa df|ae (3ege ce AB|cB AB cd ef|ge ce d4|

